public/icons/link-icon.svg

<svg width="20" height="20" viewBox="0 0 20 20" fill="none" xmlns="http://www.w3.org/2000/svg">
<path d="M17.7786 2.22228C15.826 0.269657 12.6602 0.269657 10.7076 2.22228L7.87913 5.05071C7.48861 5.44123 7.48861 6.07439 7.87913 6.46492C8.26966 6.85544 8.90282 6.85544 9.29335 6.46492L12.1218 3.63649C13.2933 2.46492 15.1928 2.46492 16.3644 3.63649C17.536 4.80806 17.536 6.70756 16.3644 7.87913L13.536 10.7076C13.1455 11.0981 13.1455 11.7312 13.536 12.1218C13.9265 12.5123 14.5597 12.5123 14.9502 12.1218L17.7786 9.29335C19.7312 7.34072 19.7312 4.1749 17.7786 2.22228Z" fill="#667185"/>
<path d="M12.1218 9.29335C12.5123 8.90282 12.5123 8.26966 12.1218 7.87913C11.7312 7.48861 11.0981 7.48861 10.7076 7.87913L7.87913 10.7076C7.48861 11.0981 7.48861 11.7312 7.87913 12.1218C8.26966 12.5123 8.90282 12.5123 9.29335 12.1218L12.1218 9.29335Z" fill="#667185"/>
<path d="M6.46492 9.29335C6.85544 8.90282 6.85544 8.26966 6.46492 7.87913C6.07439 7.48861 5.44123 7.48861 5.05071 7.87913L2.22228 10.7076C0.269657 12.6602 0.269657 15.826 2.22228 17.7786C4.1749 19.7312 7.34072 19.7312 9.29335 17.7786L12.1218 14.9502C12.5123 14.5597 12.5123 13.9265 12.1218 13.536C11.7312 13.1455 11.0981 13.1455 10.7076 13.536L7.87913 16.3644C6.70756 17.536 4.80806 17.536 3.63649 16.3644C2.46492 15.1928 2.46492 13.2933 3.63649 12.1218L6.46492 9.29335Z" fill="#667185"/>
</svg>

<svg xmlns="http://www.w3.org/2000/svg" width="20" height="20" fill="none"><path fill="#667185" d="M17.779 2.222a5 5 0 0 0-7.071 0L7.879 5.051a1 1 0 0 0 1.414 1.414l2.829-2.829a3 3 0 1 1 4.242 4.243l-2.828 2.829a1 1 0 0 0 1.414 1.414l2.829-2.829a5 5 0 0 0 0-7.07"/><path fill="#667185" d="M12.122 9.293a1 1 0 0 0-1.414-1.414l-2.829 2.829a1 1 0 1 0 1.414 1.414z"/><path fill="#667185" d="M6.465 9.293A1 1 0 0 0 5.05 7.88l-2.829 2.829a5 5 0 1 0 7.071 7.07l2.829-2.828a1 1 0 0 0-1.414-1.414l-2.829 2.828a3 3 0 1 1-4.243-4.242z"/></svg>
